X: 183
T:The Whim
M:6/8
L:1/8
A:English
K:G
d|BGG G>AB| c2 B A2 G| FAA A2 B|c>de eBG| c>dB ABc| BGG G2:|
|:B c>de/f/ g>fe|dBc A2 G|cAA A>Bc| d3 c3 |B>cB A2 d|BGG G2:|

